X: 10
I: linebreak $
T: Pontyplas
T: Un jour Dieu se resolut
C: Michael Corrette, Nouveau Livre de noels, 1741
P: 10 times
K: G major
M: 4/4
L: 1/8
P: A
 "G"B2c2 | "G"d2G2 G2"D"A2 | "G"B4 "G"B2c2 | "G"d2G2 G2"D"A2 | "G"B4 B2"Am"c2 | "G"d2G2 G2"D"A2 | "G"B4 B2"Am"c2 | 
"G"d2G2 G2"D"A2 | "G"B4 B2c2 | "G"d2e2 "D7"c2d2 | "G"d4 G2d2 | "G"d2d2 "C"e4 | "G"d4 "C"c2"D7"c2 | 
"G"B2c2 d2cB | "D"A4 c2c2 | "G"B2"Am"c2 "D"A4 | "G"G4 :| 

